!!!OTL: Das Schloss in Oesterreich. / geistliche Parodie
!!!ARE: Europa, Mitteleuropa, Deutschland
!!!SCT: A0027B
!!!TXL: @@GMH
!!!YEM: Copyright 1995, estate of Helmut Schaffrath.
**kern	**text
*M3/2	*
*met(3)	*
*k[b-]	*
*F:	*
=1	=1
{2f	Es
2f	iſt
2g	ein
=2	=2
1a	Schloß
2b-	Si-
=3	=3
1cc	-on
2a	ge-
=4	=4
1.f}	-nant,
=5||	=5||
{2f	Je-
2a	-ru-
2b-	-ſa-
=6	=6
1cc	-lem
2g	voll
=7	=7
(2.f	Freu-
4e	.
2d)	.
=8	=8
1.c}	-den,
=9||	=9||
{2cc	ge-
2cc	-richt
2cc	iſt
=10	=10
1dd	es
2cc	in
=11	=11
1cc	be-
2b-	-ſten
=12	=12
1.a}	Stand,
=13||	=13||
{2dd	in
2cc	al-
2g	-le
=14	=14
1a	E-
2f	-wig-
=15	=15
2e	kei-
2f	-ten,
2g	ohn
=16	=16
(2.a	Lei-
4f	.
2g)	.
=17	=17
1.f}	-den.
==	==
!! Werlin 1646 S. 1754
!!!ONB: ESAC (Essen Associative Code) Database: ALTDEU
!!!AMT: simple triple
!!!AIN: vox
!!!EED: Helmut Schaffrath
!!!EEV: 1.0
!!!GTL: Balladen und Romanzen (erzählende Volkslieder)
!!@@COMMENT: "Die volksmäßigere Form der Melodie liegt mir vor zu einer geistlichen Parodie bei Werlin 1646 S. 1754. Hier ist sie:"
!!QQEND
!!!URL-scan: https://rosdok.uni-rostock.de/mcrviewer/recordIdentifier/rosdok_ppn738218359/iview2/phys_0172.iview2?x=-425.8853427895981&y=-327.9938534302637&scale=0.4823261117445838&rotation=0&layout=singlePageLayout&logicalDiv=log_0007
!!!ENC: Anna Maria Matuszewska
!!!EEV: 2024/19/02
*-	*-
